components/Common/Svg/svgs/codeDesktop2.svg

<svg width="90" height="90" viewBox="0 0 90 90" fill="none" xmlns="http://www.w3.org/2000/svg">
<circle opacity="0.7" cx="45" cy="45" r="45" fill="#FFE603"/>
<path fill-rule="evenodd" clip-rule="evenodd" d="M61 52.2219C61 53.1852 60.1979 53.9997 59.1667 53.9997H45H30.8333C29.8021 53.9997 29 53.1852 29 52.2219V32.7777C29 31.8145 29.8021 31 30.8333 31H59.1667C60.1979 31 61 31.8145 61 32.7777V52.2219ZM59.1667 55.9997H46V59.9996H51C51.5523 59.9996 52 60.4473 52 60.9996C52 61.5519 51.5523 61.9996 51 61.9996H45H39C38.4477 61.9996 38 61.5519 38 60.9996C38 60.4473 38.4477 59.9996 39 59.9996H44V55.9997H30.8333C28.735 55.9997 27 54.3269 27 52.2219V32.7777C27 30.6728 28.735 29 30.8333 29H59.1667C61.265 29 63 30.6728 63 32.7777V52.2219C63 54.3269 61.265 55.9997 59.1667 55.9997ZM48.1198 33.8065C48.5091 33.9481 48.7099 34.3784 48.5683 34.7677L42.8411 50.5177C42.6995 50.9069 42.2692 51.1078 41.8799 50.9662C41.4906 50.8247 41.2898 50.3943 41.4314 50.0051L47.1587 34.2551C47.3002 33.8658 47.7305 33.665 48.1198 33.8065ZM39.7526 39.383C40.0709 39.1178 40.1138 38.6449 39.8487 38.3267C39.5835 38.0085 39.1106 37.9655 38.7924 38.2307L34.4969 41.8102C34.3259 41.9527 34.2271 42.1638 34.2271 42.3864C34.2271 42.609 34.3259 42.82 34.4969 42.9625L38.7924 46.5421C39.1106 46.8073 39.5835 46.7643 39.8487 46.4461C40.1138 46.1278 40.0709 45.6549 39.7526 45.3897L36.1486 42.3864L39.7526 39.383ZM51.2072 38.2307C50.889 37.9655 50.4161 38.0085 50.1509 38.3267C49.8857 38.6449 49.9287 39.1178 50.2469 39.383L53.851 42.3864L50.2469 45.3897C49.9287 45.6549 49.8857 46.1278 50.1509 46.4461C50.4161 46.7643 50.889 46.8073 51.2072 46.5421L55.5026 42.9625C55.6736 42.82 55.7725 42.609 55.7725 42.3864C55.7725 42.1638 55.6736 41.9527 55.5026 41.8102L51.2072 38.2307Z" fill="#161616"/>
</svg>

<svg width="90" height="90" viewBox="0 0 90 90" fill="none" xmlns="http://www.w3.org/2000/svg"><circle opacity=".7" cx="45" cy="45" r="45" fill="#FFE603"/><path fill-rule="evenodd" clip-rule="evenodd" d="M61 52.222c0 .963-.802 1.778-1.833 1.778H30.833C29.803 54 29 53.185 29 52.222V32.778c0-.963.802-1.778 1.833-1.778h28.334c1.03 0 1.833.814 1.833 1.778v19.444ZM59.167 56H46v4h5a1 1 0 1 1 0 2H39a1 1 0 1 1 0-2h5v-4H30.833C28.735 56 27 54.327 27 52.222V32.778C27 30.673 28.735 29 30.833 29h28.334C61.265 29 63 30.673 63 32.778v19.444C63 54.327 61.265 56 59.167 56ZM48.12 33.806a.75.75 0 0 1 .448.962l-5.727 15.75a.75.75 0 0 1-1.41-.513l5.728-15.75a.75.75 0 0 1 .96-.449Zm-8.367 5.577a.75.75 0 1 0-.96-1.152l-4.296 3.58a.75.75 0 0 0 0 1.151l4.295 3.58a.75.75 0 1 0 .96-1.152l-3.603-3.004 3.604-3.003Zm11.454-1.152a.75.75 0 1 0-.96 1.152l3.604 3.003-3.604 3.004a.75.75 0 0 0 .96 1.152l4.296-3.58a.75.75 0 0 0 0-1.152l-4.296-3.58Z" fill="#161616"/></svg>
